X: 20434
M: C|
L: 1/8
K: D
dcdA FGAF | dcdA F2ef | gfge fded | c2A2 A2AB |\
dcdA FGAF | dcdA F2ef | gfge fded | A2d2 d2 :|
|: fg |\
a3f afaf | bgbg e2fg | a2a2 (3(bag) (3(fed) | c2A2 A2fg |\
a3f afaf | bgbg e2fg | afaf bgec | d2d2 d2 :|


